static/assets/images/exchanges/ourbit.svg

<svg width="222" height="256" viewBox="0 0 222 256" fill="none" xmlns="http://www.w3.org/2000/svg">
<path d="M148.092 21.336L111.189 0L74.3114 21.336L111.197 42.664L148.084 21.336H148.092ZM0.53125 64L37.4173 42.664L74.3114 64L37.4173 85.336V170.664L111.197 213.336L184.97 170.664V85.336L148.092 64L184.978 42.664L221.864 64V192L111.197 256L0.53125 192V64Z" fill="#51CA88"/>
<path d="M147.852 149.464V106.8L110.966 85.4639L74.0796 106.8V149.464L110.966 170.8L147.852 149.464Z" fill="#51CA88"/>
</svg>

<svg xmlns="http://www.w3.org/2000/svg" fill="none" viewBox="0 0 222 256"><path fill="#51CA88" d="M148.092 21.336 111.189 0 74.311 21.336l36.886 21.328 36.887-21.328zM.532 64l36.885-21.336L74.311 64 37.417 85.336v85.328l73.78 42.672 73.773-42.672V85.336L148.092 64l36.886-21.336L221.864 64v128l-110.667 64L.531 192z"/><path fill="#51CA88" d="M147.852 149.464V106.8l-36.886-21.336L74.08 106.8v42.664l36.886 21.336z"/></svg>
